X:91
T:Kildare Fancy (h)
B:NFID.245b
091kild_f
S:PT
L:1/8
M:C
R:hornpipe
Q:300
K:D
dB|AFDF AFdB|(3ABA Ad fedc|BAef gefd|edcB A2 dB|
AFDF AFdB|(3ABA Ad fedc|BAef gefd|ec (3ABc d2:|
de|fdcd (3Bcd AF|Ddcd fdcd|eA (3AAA fA (3AAA|\
(3efe (3dcB A2de|
fdcd (3Bcd AF|Ddcd fdcd|eAfA gAfA|ec (3ABc d2:|

%%%

